packages/icons/src/emoji/svg/tent.svg

<svg width="120" height="120" viewBox="0 0 120 120" fill="none" xmlns="http://www.w3.org/2000/svg">
<path d="M4.14355 94.3031C3.21928 93.9274 2.47447 93.2112 2.06279 92.3024C1.65111 91.3935 1.60395 90.3613 1.93105 89.4188C22.9873 28.3875 57.281 32.475 57.281 32.475C96.4404 33.375 113.512 76.3031 117.778 89.2688C118.444 91.2938 117.347 93.4594 115.331 94.1438L55.9967 114.225C55.1154 114.525 54.1592 114.497 53.306 114.15L4.14355 94.3031Z" fill="#FCC21B"/>
<path d="M57.338 32.1846C57.338 32.1846 50.8598 35.7096 49.8848 63.8346C49.1536 85.1627 55.988 114.197 55.988 114.197L115.641 94.0314C116.555 93.7234 117.321 93.0861 117.791 92.2438C118.261 91.4015 118.4 90.4146 118.182 89.4752C115.285 77.1471 102.329 35.5971 57.338 32.1846Z" fill="#E89F0F"/>
<path d="M62.7378 9.94664C63.8347 10.0591 64.8847 10.406 66.0378 10.6029C72.0097 11.606 95.9159 14.9998 97.3597 15.5716C97.9972 15.8248 98.8784 16.2466 99.0659 16.9685C99.3659 18.0654 97.9785 18.5623 97.2097 18.9466C93.9472 20.5966 69.2534 28.8185 65.7191 29.981C64.5753 30.3654 63.5816 30.9091 62.3628 30.956C61.2284 31.0029 59.9347 31.7154 58.8941 31.0029C57.8909 30.3185 57.8347 29.3529 57.8347 28.2373C57.8347 27.0748 57.6378 25.8935 57.5253 24.7404C57.4222 23.5966 57.5253 22.3966 57.5253 21.2529C57.5253 20.006 57.6847 18.8435 57.6847 17.5779C57.6847 16.1998 57.7128 14.8685 57.8347 13.5185C57.9191 12.5716 58.1159 11.4466 58.6409 10.6779C59.0534 10.0685 59.5222 9.60914 60.2628 9.46852C61.1722 9.30914 61.8659 9.85289 62.7378 9.94664Z" fill="#ED6C30"/>
<path d="M56.9252 36.3469C55.6596 36.3469 54.6377 35.0906 54.6377 33.5437V9.31875C54.6377 7.77187 55.6689 6.51562 56.9252 6.51562C58.1908 6.51562 59.2127 7.77187 59.2127 9.31875V33.5437C59.2127 35.0906 58.1908 36.3469 56.9252 36.3469ZM102.356 98.5031C102.356 98.5031 95.0814 62.3344 80.6252 66.2906C68.2971 69.675 74.9252 107.766 74.9252 107.766L102.356 98.5031Z" fill="#855C52"/>
</svg>

<svg xmlns="http://www.w3.org/2000/svg" fill="none" aria-hidden="true" data-slot="icon" viewBox="0 0 120 120"><path fill="#FCC21B" d="M4.144 94.303A3.894 3.894 0 0 1 1.93 89.42c21.056-61.031 55.35-56.944 55.35-56.944 39.16.9 56.231 43.828 60.497 56.794a3.87 3.87 0 0 1-2.447 4.875l-59.334 20.081c-.882.3-1.838.272-2.691-.075z"/><path fill="#E89F0F" d="M57.338 32.185s-6.478 3.525-7.453 31.65c-.731 21.328 6.103 50.362 6.103 50.362l59.653-20.166a3.88 3.88 0 0 0 2.541-4.556c-2.897-12.328-15.853-53.878-60.844-57.29"/><path fill="#ED6C30" d="M62.738 9.947c1.097.112 2.147.459 3.3.656C72.01 11.606 95.916 15 97.36 15.572c.637.253 1.518.675 1.706 1.396.3 1.097-1.088 1.594-1.856 1.979-3.263 1.65-27.957 9.872-31.49 11.034-1.145.384-2.138.928-3.357.975-1.135.047-2.428.76-3.469.047-1.003-.684-1.06-1.65-1.06-2.766 0-1.162-.196-2.343-.309-3.497-.103-1.143 0-2.343 0-3.487 0-1.247.16-2.41.16-3.675 0-1.378.028-2.71.15-4.06.084-.946.28-2.071.806-2.84.412-.61.881-1.069 1.622-1.21.91-.159 1.603.385 2.475.479"/><path fill="#855C52" d="M56.925 36.347c-1.265 0-2.287-1.256-2.287-2.803V9.319c0-1.547 1.03-2.803 2.287-2.803 1.266 0 2.288 1.256 2.288 2.803v24.225c0 1.547-1.022 2.803-2.288 2.803m45.431 62.156s-7.275-36.169-21.73-32.212c-12.329 3.384-5.7 41.475-5.7 41.475z"/></svg>
